X: 24205
T: Lord Macpherson Of Drumochter
R: jig
M: 6/8
K: Bminor
f|:B>BB B>de|f>dB B>cd|e>cA c2a|f>ed c>BA|
B>BB B>de|f<af f>ed|c<Aa f>ec|1 B3 B2f:|2 B3 B>de||
|:f>af f2e|f<af f>ed|e>cA c2a|f>ed c>BA|
[1 f>af f2e|f<af f>ed|c<Aa f>ec|B3 B>de:|
[2 B>BB B>de|f>dB B>cd|c<Aa f>ec|B3 B2f||
|:B>BB B<AB|c>BB B>cd|e>cA c>BA|c<ea f>ec|
B>BB B<AB|c>BB B>cd|c<Aa f>ec|1 B3 B2f:|2 B3 B>ce||
|:f>BB c>BB|f>aa f>ef|{f}e>cA c>BA|c<ea f>ec|
[1 f>BB c>BB|f>aa f>ed|c<Aa f>ec|B3 B>ce:|
[2 B>BB B<AB|c>BB B>cd|c<Aa f>ec|B6||

